usr/share/icons/biglinux-icons-material-dark/22/actions/find-location.svg

<!DOCTYPE svg>
<svg xmlns="http://www.w3.org/2000/svg" version="1.1" viewBox="0 0 22 22">
    <defs>
        <style id="current-color-scheme" type="text/css">
            .ColorScheme-Text {
                color:#dedede;
            }
        </style>
    </defs>
    <path style="fill:currentColor; fill-opacity:1; stroke:none" class="ColorScheme-Text" d="M 6 3 C 4.929 3 3.93784 3.57249 3.40234 4.5 C 3.13459 4.96375 3 5.48188 3 6 L 3 16 C 3 16.5181 3.1346 17.0362 3.40234 17.5 C 3.93784 18.4275 4.929 19 6 19 L 16 19 L 16 18 L 6 18 C 5.28467 18 4.62524 17.6195 4.26758 17 C 3.90991 16.3805 3.90991 15.6195 4.26758 15 C 4.62524 14.3805 5.28467 14 6 14 L 7 14 L 7 7 L 17 7 L 17 15 L 18 15 L 18 6 L 7 6 L 7 3 L 6 3 Z M 6 4 L 6 6 L 6 7 L 6 13 C 5.24975 13 4.5427 13.2863 4 13.7734 L 4 6 C 4 5.65487 4.08874 5.30975 4.26758 5 C 4.62524 4.3805 5.28467 4 6 4 Z"/>
    <path style="fill:currentColor; fill-opacity:1; stroke:none" class="ColorScheme-Text" d="M 12 8 C 9.79086 8 8 9.79086 8 12 C 8 14.2091 9.79086 16 12 16 C 12.8874 15.9982 13.749 15.7014 14.4492 15.1563 L 18.293 19 L 19 18.293 L 15.1582 14.4512 C 15.7031 13.7502 15.9992 12.8878 16 12 C 16 9.79086 14.2091 8 12 8 Z M 12 9 C 13.6569 9 15 10.3431 15 12 C 15 13.6569 13.6569 15 12 15 C 10.3431 15 9 13.6569 9 12 C 9 10.3431 10.3431 9 12 9 Z"/>
</svg>

<svg xmlns="http://www.w3.org/2000/svg" viewBox="0 0 22 22">
<defs>
<style id="current-color-scheme" type="text/css">
.ColorScheme-Text{color:#dedede}
</style>
</defs>
<path d="M6 3a3 3 0 0 0-3 3v10a3 3 0 0 0 3 3h10v-1H6a1.999 1.999 0 0 1-1.732-3c.357-.62 1.017-1 1.732-1h1V7h10v8h1V6H7V3zm0 1v9c-.75 0-1.457.286-2 .773V6a2 2 0 0 1 2-2" class="ColorScheme-Text" style="fill:currentColor;fill-opacity:1;stroke:none"/>
<path d="M12 8a4 4 0 1 0 0 8 4 4 0 0 0 2.45-.844L18.292 19l.707-.707-3.842-3.842A4 4 0 0 0 12 8m0 1a3 3 0 1 1 0 6 3 3 0 0 1 0-6" class="ColorScheme-Text" style="fill:currentColor;fill-opacity:1;stroke:none"/>
</svg>
